storage/app/icons/phosphoricons/bold/crane-bold.svg

<svg xmlns="http://www.w3.org/2000/svg" viewBox="0 0 256 256" fill="currentColor"><path d="M230.17,13.71a12,12,0,0,0-11.82-.3L101,76H32A20,20,0,0,0,12,96V200a20,20,0,0,0,20,20h88a20,20,0,0,0,20-20V168a11.86,11.86,0,0,0-.51-3.45L118.32,94,212,44V156H200v-4a12,12,0,0,0-24,0v8a20,20,0,0,0,20,20h20a20,20,0,0,0,20-20V24A12,12,0,0,0,230.17,13.71ZM95.07,100l16.8,56H76V100ZM52,100v56H36V100ZM36,196V180h80v16Z"/></svg>

<svg xmlns="http://www.w3.org/2000/svg" fill="currentColor" viewBox="0 0 256 256"><path d="M230.17 13.71a12 12 0 0 0-11.82-.3L101 76H32a20 20 0 0 0-20 20v104a20 20 0 0 0 20 20h88a20 20 0 0 0 20-20v-32a11.9 11.9 0 0 0-.51-3.45L118.32 94 212 44v112h-12v-4a12 12 0 0 0-24 0v8a20 20 0 0 0 20 20h20a20 20 0 0 0 20-20V24a12 12 0 0 0-5.83-10.29M95.07 100l16.8 56H76v-56ZM52 100v56H36v-56Zm-16 96v-16h80v16Z"/></svg>
